X:128
T:L'Oiseau Bleu
S:Jim Coon to CoMandoList TOW
R:reel
M:2/4
L:1/8
Q:120
K:D
|:"D"A3/2B/ AG|FA d3/2d/|
"A7"cd ec|"D"d/c/d/e/ "A7"fd|!
"D"A3/2B/ AG| FA d>d|
"Em"cd ef/g/|"A7"fe "D"d2:|!
|:"D"Ad f3/2f/|"Em"ef ge|
"A7"Ac ec|"D"d/c/d/e/ "A7"fd|!
"D"Ad f3/2f/|"Em" ef ge|
"A7"Ac ef/g/|"A7"fe "D"d2:|!
